picto/maximum-load-framed.svg

<svg class="color-immutable" width="30" height="30" viewBox="0 0 30 30" fill="none" xmlns="http://www.w3.org/2000/svg"><path d="M29.9999 0H0V29.9999H29.9999V0Z" fill="#2D327D"/><path d="M25.4999 2.99999C26.3249 2.99999 26.9999 3.67499 26.9999 4.49999V25.4999C26.9999 26.3249 26.3249 26.9999 25.4999 26.9999H4.49999C3.67499 26.9999 2.99999 26.3249 2.99999 25.4999V4.49999C2.99999 3.67499 3.67499 2.99999 4.49999 2.99999H25.4999ZM25.4999 2.62499H4.49999C3.46612 2.62499 2.62499 3.46612 2.62499 4.49999V25.4999C2.62499 26.5338 3.46612 27.3749 4.49999 27.3749H25.4999C26.5338 27.3749 27.3749 26.5338 27.3749 25.4999V4.49999C27.3749 3.46612 26.5338 2.62499 25.4999 2.62499Z" fill="white"/><path d="M14.2852 17.8564L11.2824 14.8535V16.7302L15.0357 20.4841L18.7899 16.7302V14.8535L15.7868 17.8564V10.7244H14.2852V17.8564Z" fill="white"/><path d="M23.9999 23.9999H5.99998V22.4999H23.9999V23.9999Z" fill="white"/><path d="M8.7173 5.99998V8.24863H8.25125L8.2682 6.53983L7.70067 8.24863H7.31465L6.7379 6.58753L6.75485 8.24863H6.2888V5.99998H6.98713L7.51625 7.61653L8.0252 5.99998H8.7173Z" fill="white"/><path d="M10.6247 8.24863H10.1694C10.1499 8.18301 10.1402 8.12713 10.1402 8.08101C10.0007 8.22351 9.82075 8.29483 9.60033 8.29483C9.42805 8.29483 9.29373 8.25486 9.19735 8.17483C9.08658 8.08258 9.03123 7.95388 9.03123 7.78881C9.03123 7.57858 9.1261 7.43301 9.31578 7.35201C9.39265 7.31916 9.53418 7.28894 9.74027 7.26126C9.91765 7.23771 10.0281 7.21484 10.0717 7.19279C10.1153 7.17074 10.1371 7.12641 10.1371 7.05974C10.1371 6.91311 10.0397 6.83976 9.8449 6.83976C9.74133 6.83976 9.66573 6.85821 9.61803 6.89511C9.57033 6.93201 9.53883 6.99614 9.52345 7.08734H9.10203C9.11538 6.90074 9.18558 6.75996 9.31278 6.66516C9.43998 6.57036 9.62088 6.52289 9.8557 6.52289C10.1151 6.52289 10.3069 6.57569 10.4309 6.68129C10.4884 6.73049 10.5266 6.78329 10.5455 6.83969C10.5645 6.89609 10.574 6.98526 10.574 7.10729C10.574 7.13294 10.5724 7.24574 10.5693 7.44568C10.5673 7.64766 10.5662 7.76353 10.5662 7.79331C10.5662 7.91533 10.5698 8.00481 10.577 8.06173C10.5842 8.11866 10.6001 8.18098 10.6247 8.24863ZM10.134 7.43811C10.0766 7.47403 9.97203 7.50216 9.82023 7.52271C9.71358 7.53913 9.6367 7.56013 9.58953 7.58578C9.52285 7.62171 9.48955 7.68268 9.48955 7.76878C9.48955 7.83853 9.5116 7.89283 9.5557 7.93183C9.5998 7.97083 9.6613 7.99026 9.74027 7.99026C9.87152 7.99026 9.97765 7.94413 10.0586 7.85181C10.0874 7.82001 10.1071 7.78693 10.1179 7.75258C10.1287 7.71823 10.134 7.67286 10.134 7.61646V7.43811Z" fill="white"/><path d="M12.4272 6.56909L11.8889 7.34886L12.4949 8.24864H11.9796L11.6336 7.70414L11.2952 8.24864H10.7876L11.3798 7.35959L10.8399 6.56901H11.3521L11.6443 7.01969L11.9288 6.56901H12.4272V6.56909Z" fill="white"/><path d="M13.204 7.74876V8.24863H12.6933V7.74876H13.204Z" fill="white"/><path d="M15.9479 7.86103V8.24862H14.3283C14.3283 8.12967 14.3478 8.01687 14.3868 7.91022C14.4257 7.80357 14.4816 7.71133 14.5544 7.6334C14.6097 7.57393 14.6744 7.51625 14.7482 7.46038C14.822 7.4045 14.9702 7.3007 15.1927 7.1489C15.3004 7.0751 15.3757 7.00715 15.4188 6.94513C15.462 6.8831 15.4834 6.81103 15.4834 6.72905C15.4834 6.63373 15.4545 6.55655 15.3965 6.4976C15.3385 6.43865 15.2624 6.40918 15.1681 6.40918C14.9364 6.40918 14.8169 6.57013 14.8098 6.8921H14.3775C14.3775 6.87163 14.3775 6.85573 14.3775 6.8444C14.3775 6.58085 14.454 6.37685 14.6067 6.23225C14.7554 6.09073 14.9482 6.02 15.1851 6.02C15.3922 6.02 15.5665 6.07745 15.708 6.19228C15.8608 6.31738 15.9372 6.48553 15.9372 6.6968C15.9372 6.88138 15.8762 7.0403 15.7542 7.17358C15.7142 7.21663 15.677 7.2515 15.6426 7.2782C15.6083 7.3049 15.5163 7.3679 15.3666 7.46735C15.223 7.56478 15.1212 7.63805 15.0612 7.68733C15.0012 7.7366 14.9451 7.7945 14.8928 7.8611H15.9479V7.86103Z" fill="white"/><path d="M16.8999 6.02C17.0711 6.02 17.2219 6.07025 17.3521 6.17075C17.4823 6.27125 17.5761 6.42553 17.6335 6.63373C17.6776 6.7937 17.6997 6.96695 17.6997 7.15363C17.6997 7.47148 17.6422 7.72685 17.5274 7.9196C17.4567 8.0375 17.3674 8.1275 17.2598 8.18952C17.1522 8.25155 17.0311 8.2826 16.8968 8.2826C16.7133 8.2826 16.5564 8.22927 16.4262 8.12262C16.1944 7.93392 16.0786 7.6115 16.0786 7.1552C16.0786 6.82708 16.1391 6.56615 16.2601 6.37235C16.3308 6.2585 16.4213 6.17135 16.5316 6.1109C16.6418 6.05045 16.7645 6.02 16.8999 6.02ZM16.8829 6.3845C16.7363 6.3845 16.6358 6.46655 16.5814 6.63058C16.5394 6.7577 16.5184 6.93973 16.5184 7.17658C16.5184 7.3847 16.5399 7.5503 16.5829 7.67337C16.6383 7.83642 16.7408 7.91795 16.8906 7.91795C17.0146 7.91795 17.107 7.85517 17.1674 7.72955C17.2279 7.60393 17.2582 7.4114 17.2582 7.15198C17.2582 6.93253 17.2366 6.75823 17.1936 6.629C17.1382 6.46603 17.0347 6.3845 16.8829 6.3845Z" fill="white"/><path d="M20.8512 5.99998L19.9699 6.88903L20.9342 8.2487H20.3144L19.6315 7.23973L19.3485 7.52271V8.2487H18.8579V5.99998H19.3485V6.93051L20.2298 5.99998H20.8512Z" fill="white"/><path d="M22.6556 6.56908V8.04875C22.6556 8.18 22.6474 8.28485 22.631 8.3633C22.6146 8.44175 22.5864 8.5133 22.5464 8.57788C22.4172 8.78293 22.1855 8.88552 21.8512 8.88552C21.3856 8.88552 21.1309 8.70965 21.0868 8.35798H21.5359C21.5666 8.49845 21.6748 8.56873 21.8604 8.56873C22.0019 8.56873 22.1008 8.52875 22.1572 8.44873C22.2013 8.38513 22.2234 8.2826 22.2234 8.14108L22.225 7.9334C22.1101 8.1098 21.944 8.19793 21.7266 8.19793C21.5164 8.19793 21.3487 8.12413 21.2236 7.97645C21.0965 7.82675 21.0329 7.62478 21.0329 7.37045C21.0329 7.11613 21.0965 6.91213 21.2236 6.75831C21.3559 6.59938 21.5297 6.51988 21.745 6.51988C21.8568 6.51988 21.9501 6.54088 22.0249 6.58296C22.0998 6.62503 22.1685 6.69523 22.231 6.79371V6.56916H22.6556V6.56908ZM21.845 6.88588C21.7199 6.88588 21.625 6.93815 21.5605 7.04278C21.5082 7.12685 21.482 7.2335 21.482 7.36273C21.482 7.52683 21.52 7.6514 21.5959 7.73645C21.6615 7.81235 21.7471 7.8503 21.8527 7.8503C21.986 7.8503 22.086 7.79443 22.1527 7.68268C22.204 7.59658 22.2295 7.48783 22.2295 7.35658C22.2295 7.1987 22.1901 7.07668 22.1111 6.9905C22.0465 6.92075 21.9578 6.88588 21.845 6.88588Z" fill="white"/></svg>

<svg class="color-immutable" width="30" height="30" viewBox="0 0 30 30" fill="none" xmlns="http://www.w3.org/2000/svg"><path d="M30 0H0v30h30V0Z" fill="#2D327D"/><path d="M25.5 3c.825 0 1.5.675 1.5 1.5v21c0 .825-.675 1.5-1.5 1.5h-21c-.825 0-1.5-.675-1.5-1.5v-21C3 3.675 3.675 3 4.5 3h21Zm0-.375h-21A1.877 1.877 0 0 0 2.625 4.5v21c0 1.034.841 1.875 1.875 1.875h21a1.877 1.877 0 0 0 1.875-1.875v-21A1.877 1.877 0 0 0 25.5 2.625Z" fill="#fff"/><path d="m14.285 17.856-3.003-3.003v1.877l3.754 3.754 3.754-3.754v-1.877l-3.003 3.003v-7.132h-1.502v7.132ZM24 24H6v-1.5h18V24ZM8.717 6v2.249h-.466l.017-1.71-.567 1.71h-.386l-.577-1.661.017 1.66h-.466V6h.698l.53 1.617L8.024 6h.692ZM10.625 8.249h-.456a.605.605 0 0 1-.029-.168.722.722 0 0 1-.54.214c-.172 0-.306-.04-.403-.12a.475.475 0 0 1-.166-.386c0-.21.095-.356.285-.437.077-.033.218-.063.424-.09a1.37 1.37 0 0 0 .332-.07c.043-.021.065-.066.065-.132 0-.147-.097-.22-.292-.22-.104 0-.18.018-.227.055-.048.037-.08.101-.095.192h-.421a.545.545 0 0 1 .21-.422c.128-.095.309-.142.544-.142.26 0 .45.053.575.158.057.05.096.102.115.159a.91.91 0 0 1 .028.267l-.005.339-.003.347c0 .122.004.212.011.269.007.057.023.119.048.187Zm-.491-.81a.865.865 0 0 1-.314.084.757.757 0 0 0-.23.063c-.067.036-.1.097-.1.183 0 .07.022.124.066.163a.27.27 0 0 0 .184.058.403.403 0 0 0 .319-.138.268.268 0 0 0 .059-.1.467.467 0 0 0 .016-.136v-.178ZM12.427 6.57l-.538.779.606.9h-.515l-.346-.545-.339.545h-.507l.592-.89-.54-.79h.512l.292.45.285-.45h.498ZM13.204 7.749v.5h-.51v-.5h.51ZM15.948 7.861v.388h-1.62c0-.12.02-.232.059-.339a.804.804 0 0 1 .167-.277 1.5 1.5 0 0 1 .194-.173c.074-.056.222-.16.445-.311a.885.885 0 0 0 .226-.204.369.369 0 0 0 .064-.216.316.316 0 0 0-.087-.231.306.306 0 0 0-.228-.089c-.232 0-.351.161-.358.483h-.433v-.048c0-.263.077-.467.23-.612a.804.804 0 0 1 .578-.212c.207 0 .381.057.523.172.153.125.23.294.23.505a.682.682 0 0 1-.184.477.96.96 0 0 1-.111.104c-.035.027-.127.09-.276.19-.144.097-.246.17-.306.22-.06.049-.116.107-.168.173h1.055ZM16.9 6.02a.72.72 0 0 1 .452.15c.13.101.224.256.282.464.044.16.066.333.066.52 0 .317-.058.573-.173.766a.714.714 0 0 1-.63.363.719.719 0 0 1-.47-.16c-.233-.19-.348-.511-.348-.968 0-.328.06-.589.181-.783a.73.73 0 0 1 .64-.352Zm-.017.365c-.147 0-.247.082-.302.246-.042.127-.063.309-.063.546 0 .208.022.373.065.496.055.163.158.245.308.245.124 0 .216-.063.276-.188.06-.126.091-.319.091-.578 0-.22-.021-.394-.064-.523-.056-.163-.16-.244-.311-.244ZM20.851 6l-.881.889.964 1.36h-.62l-.683-1.01-.282.284v.726h-.491V6h.49v.93L20.23 6h.621ZM22.656 6.57v1.479c0 .131-.009.236-.025.314a.66.66 0 0 1-.085.215c-.129.205-.36.308-.695.308-.465 0-.72-.176-.764-.528h.449c.03.14.139.21.324.21.142 0 .24-.04.297-.12.044-.063.066-.165.066-.307l.002-.208a.559.559 0 0 1-.498.265.626.626 0 0 1-.503-.222c-.128-.15-.191-.351-.191-.606 0-.254.063-.458.19-.612a.645.645 0 0 1 .522-.238c.112 0 .205.02.28.063a.605.605 0 0 1 .206.21V6.57h.425Zm-.811.316a.314.314 0 0 0-.284.157.596.596 0 0 0-.079.32c0 .164.038.288.114.373a.323.323 0 0 0 .257.114.327.327 0 0 0 .3-.167.629.629 0 0 0 .077-.326c0-.158-.04-.28-.119-.367a.345.345 0 0 0-.266-.104Z" fill="#fff"/></svg>
